packages/astro-components-stencil/src/icons/cake.svg

<svg width="24" height="24" viewBox="0 0 24 24" fill="none" xmlns="http://www.w3.org/2000/svg">
<path fill-rule="evenodd" clip-rule="evenodd" d="M12.68 5.87994C13.38 5.63994 13.9 4.97994 13.98 4.23994C14.03 3.76994 13.93 3.32994 13.7 2.96994L12.42 0.749941C12.23 0.419941 11.75 0.419941 11.55 0.749941L10.27 2.96994C10.1 3.26994 10 3.61994 10 3.99994C10 5.31994 11.3 6.34994 12.68 5.87994ZM16.53 15.9199L15.53 14.9199L14.45 15.9899C13.15 17.2899 10.87 17.2999 9.56 15.9899L8.49 14.9199L7.4 15.9899C6.75 16.6399 5.88 16.9999 4.96 16.9999C4.23 16.9999 3.56 16.7699 3 16.3899V19.9999C3 21.0999 3.9 21.9999 5 21.9999H19C20.1 21.9999 21 21.0999 21 19.9999V16.3899C20.25 16.8999 19.29 17.1399 18.26 16.9099C17.6 16.7699 17.01 16.3999 16.53 15.9199ZM13 8.99994H18C19.66 8.99994 21 10.3399 20.99 12.0099V13.4299C20.99 14.4299 20.29 15.3599 19.3 15.4899C18.68 15.5699 18.08 15.3699 17.65 14.9399L15.52 12.8099L13.38 14.9399C12.62 15.6999 11.37 15.6999 10.61 14.9399L8.48 12.8099L6.34 14.9399C5.83 15.4599 5.04 15.6399 4.31 15.3999C3.5 15.1299 3 14.3099 3 13.4599V11.9999C3 10.3399 4.34 8.99994 6 8.99994H11V7.99994C11 7.44994 11.45 6.99994 12 6.99994C12.55 6.99994 13 7.44994 13 7.99994V8.99994Z" fill="black"/>
</svg>

<svg xmlns="http://www.w3.org/2000/svg" viewBox="0 0 24 24"><g xmlns="http://www.w3.org/2000/svg" id="cake" fill-rule="nonzero">
            <path d="M12.68 5.88c.7-.24 1.22-.9 1.3-1.64.05-.47-.05-.91-.28-1.27L12.42.75a.506.506 0 00-.87 0l-1.28 2.22c-.17.3-.27.65-.27 1.03 0 1.32 1.3 2.35 2.68 1.88zm3.85 10.04l-1-1-1.08 1.07c-1.3 1.3-3.58 1.31-4.89 0l-1.07-1.07-1.09 1.07C6.75 16.64 5.88 17 4.96 17c-.73 0-1.4-.23-1.96-.61V20c0 1.1.9 2 2 2h14c1.1 0 2-.9 2-2v-3.61c-.75.51-1.71.75-2.74.52-.66-.14-1.25-.51-1.73-.99zM18 9h-5V8c0-.55-.45-1-1-1s-1 .45-1 1v1H6c-1.66 0-3 1.34-3 3v1.46c0 .85.5 1.67 1.31 1.94.73.24 1.52.06 2.03-.46l2.14-2.13 2.13 2.13c.76.76 2.01.76 2.77 0l2.14-2.13 2.13 2.13c.43.43 1.03.63 1.65.55.99-.13 1.69-1.06 1.69-2.06v-1.42A2.983 2.983 0 0018 9z"/>
        </g></svg>
